assets/svg/icon_video_savevideo.svg

<svg width="24" height="24" viewBox="0 0 24 24" fill="none" xmlns="http://www.w3.org/2000/svg">
<path d="M16.7746 5.11611L16.2746 5.11499V5.11517L16.7746 5.11611ZM15.2366 3.40046L15.1832 3.8976L15.1832 3.8976L15.2366 3.40046ZM8.76929 3.40046L8.82264 3.8976L8.82265 3.8976L8.76929 3.40046ZM7.23128 5.1161L7.73128 5.11503V5.11501L7.23128 5.1161ZM20.4098 16.1953C20.4484 15.9218 20.258 15.6689 19.9845 15.6304C19.7111 15.5918 19.4582 15.7822 19.4196 16.0557L20.4098 16.1953ZM18.6907 19.9686L19.0096 20.3537L19.0096 20.3537L18.6907 19.9686ZM5.30991 19.9686L4.99103 20.3537L4.99105 20.3537L5.30991 19.9686ZM4.08588 16.1255L4.58098 16.0557V16.0557L4.08588 16.1255ZM3.72175 13.5429L3.22665 13.6127L3.22665 13.6127L3.72175 13.5429ZM3.96177 8.57635L4.32868 8.91603L4.32868 8.91603L3.96177 8.57635ZM20.0388 8.57635L20.4058 8.23668L20.4057 8.23667L20.0388 8.57635ZM19.9915 11.9388C19.958 12.2129 20.1531 12.4622 20.4272 12.4956C20.7013 12.5291 20.9507 12.334 20.9841 12.0599L19.9915 11.9388ZM14.842 13.6681L15.304 13.4771L15.304 13.477L14.842 13.6681ZM14.842 14.6494L15.304 14.8404L15.304 14.8404L14.842 14.6494ZM13.0991 15.9631L13.3493 16.396L13.3494 16.396L13.0991 15.9631ZM11.0916 16.8179L11.157 16.3221L11.157 16.3221L11.0916 16.8179ZM10.2431 16.3272L9.84619 16.6313L9.84622 16.6313L10.2431 16.3272ZM10.2431 11.9903L10.64 12.2944L10.64 12.2943L10.2431 11.9903ZM11.0916 11.4996L11.0263 11.0039L11.0263 11.0039L11.0916 11.4996ZM17.2348 5.59728C17.2577 5.38768 17.2744 5.24288 17.2746 5.11704L16.2746 5.11517C16.2745 5.17356 16.2666 5.25185 16.2407 5.48832L17.2348 5.59728ZM17.2746 5.11723C17.2771 3.98006 16.4205 3.02464 15.2899 2.90331L15.1832 3.8976C15.805 3.96432 16.276 4.48974 16.2746 5.11499L17.2746 5.11723ZM15.2899 2.90331C15.1649 2.88989 15.0193 2.89062 14.8084 2.89062V3.89062C15.0463 3.89062 15.125 3.89136 15.1832 3.8976L15.2899 2.90331ZM14.8084 2.89062H9.19746V3.89062H14.8084V2.89062ZM9.19746 2.89062C8.98656 2.89062 8.84094 2.88989 8.71593 2.90331L8.82265 3.8976C8.88083 3.89136 8.95961 3.89062 9.19746 3.89062V2.89062ZM8.71594 2.90331C7.58532 3.02464 6.7288 3.98008 6.73128 5.11719L7.73128 5.11501C7.72991 4.48972 8.20091 3.96432 8.82264 3.8976L8.71594 2.90331ZM6.73128 5.11718C6.73155 5.2429 6.74813 5.38758 6.77108 5.59722L7.76514 5.48838C7.73925 5.25191 7.7314 5.17354 7.73128 5.11503L6.73128 5.11718ZM19.0026 7.7813C19.2532 6.35202 18.1532 5.0428 16.7023 5.0428V6.0428C17.532 6.0428 18.1609 6.79145 18.0176 7.60865L19.0026 7.7813ZM16.7023 5.0428H7.29832V6.0428H16.7023V5.0428ZM7.29832 5.0428C5.84732 5.0428 4.74754 6.35204 4.99797 7.78127L5.98296 7.60868C5.83976 6.79143 6.46863 6.0428 7.29832 6.0428V5.0428ZM19.4196 16.0557C19.2671 17.1371 19.1587 17.899 18.9979 18.4733C18.8417 19.0315 18.6514 19.3519 18.3718 19.5834L19.0096 20.3537C19.5024 19.9456 19.7735 19.4124 19.9609 18.7428C20.1438 18.0894 20.2612 17.2495 20.4098 16.1953L19.4196 16.0557ZM18.3719 19.5834C18.0891 19.8175 17.7186 19.9575 17.1009 20.0316C16.4715 20.1072 15.6524 20.108 14.5008 20.108V21.108C15.6276 21.108 16.5172 21.1089 17.2201 21.0245C17.9347 20.9388 18.52 20.759 19.0096 20.3537L18.3719 19.5834ZM14.5008 20.108H9.49978V21.108H14.5008V20.108ZM9.49978 20.108C8.34821 20.108 7.52911 20.1072 6.89968 20.0316C6.28205 19.9575 5.91156 19.8175 5.62877 19.5834L4.99105 20.3537C5.48063 20.759 6.06591 20.9388 6.78054 21.0245C7.48337 21.1089 8.37302 21.108 9.49978 21.108V20.108ZM5.6288 19.5834C5.34921 19.3519 5.15891 19.0315 5.00267 18.4733C4.84193 17.899 4.73346 17.1371 4.58098 16.0557L3.59077 16.1953C3.73941 17.2495 3.85678 18.0894 4.03968 18.7429C4.22709 19.4124 4.49825 19.9456 4.99103 20.3537L5.6288 19.5834ZM4.58098 16.0557L4.21686 13.4731L3.22665 13.6127L3.59077 16.1953L4.58098 16.0557ZM4.21686 13.4731C4.02264 12.0955 3.88611 11.1178 3.89177 10.3726C3.89729 9.64492 4.0394 9.2285 4.32868 8.91603L3.59487 8.23668C3.06817 8.80559 2.89828 9.51069 2.8918 10.365C2.88544 11.2019 3.03689 12.2667 3.22665 13.6127L4.21686 13.4731ZM4.32868 8.91603C4.62265 8.5985 5.05425 8.40411 5.83115 8.30078C6.61877 8.19602 7.66875 8.19497 9.13566 8.19497V7.19497C7.6973 7.19497 6.56832 7.19392 5.69931 7.30951C4.81958 7.42652 4.11687 7.67283 3.59487 8.23668L4.32868 8.91603ZM9.13566 8.19497H14.8649V7.19497H9.13566V8.19497ZM14.8649 8.19497C16.3318 8.19497 17.3818 8.19602 18.1694 8.30078C18.9463 8.40411 19.378 8.5985 19.6719 8.91604L20.4057 8.23667C19.8837 7.67283 19.181 7.42652 18.3013 7.30951C17.4323 7.19392 16.3033 7.19497 14.8649 7.19497V8.19497ZM19.6719 8.91602C20.1368 9.41816 20.2073 10.1696 19.9915 11.9388L20.9841 12.0599C21.1906 10.3679 21.2301 9.12718 20.4058 8.23668L19.6719 8.91602ZM12.8488 12.7872C13.3832 13.0963 13.7525 13.3104 14.012 13.4955C14.2735 13.6819 14.3516 13.7907 14.3799 13.8592L15.304 13.477C15.166 13.1434 14.8982 12.8992 14.5926 12.6813C14.285 12.4619 13.866 12.2203 13.3494 11.9215L12.8488 12.7872ZM14.3799 13.8591C14.4592 14.051 14.4592 14.2666 14.3799 14.4583L15.304 14.8404C15.4845 14.4039 15.4845 13.9136 15.304 13.4771L14.3799 13.8591ZM14.3799 14.4583C14.3516 14.5268 14.2735 14.6356 14.012 14.8221C13.7525 15.0071 13.3832 15.2212 12.8488 15.5303L13.3494 16.396C13.866 16.0972 14.285 15.8556 14.5926 15.6362C14.8983 15.4183 15.166 15.1741 15.304 14.8404L14.3799 14.4583ZM12.8488 15.5303C12.3144 15.8392 11.9446 16.0524 11.6548 16.185C11.3628 16.3186 11.2299 16.3318 11.157 16.3221L11.0263 17.3136C11.3843 17.3608 11.7296 17.2504 12.0708 17.0944C12.4143 16.9372 12.8327 16.6947 13.3493 16.396L12.8488 15.5303ZM11.157 16.3221C10.9521 16.2951 10.7661 16.1877 10.64 16.0231L9.84622 16.6313C10.1335 17.0063 10.558 17.2518 11.0263 17.3136L11.157 16.3221ZM10.64 16.0232C10.595 15.9644 10.5399 15.842 10.5094 15.5219C10.4791 15.2042 10.4786 14.7768 10.4786 14.1588H9.47855C9.47855 14.7562 9.47801 15.2404 9.51388 15.6167C9.54951 15.9906 9.6267 16.3448 9.84619 16.6313L10.64 16.0232ZM10.4786 14.1588C10.4786 13.5408 10.4791 13.1133 10.5094 12.7956C10.5399 12.4754 10.595 12.3531 10.64 12.2944L9.84622 11.6862C9.6267 11.9727 9.54951 12.3269 9.51388 12.7008C9.47801 13.0771 9.47855 13.5613 9.47855 14.1588H10.4786ZM10.64 12.2943C10.7661 12.1298 10.9521 12.0223 11.157 11.9953L11.0263 11.0039C10.558 11.0656 10.1335 11.3112 9.84621 11.6862L10.64 12.2943ZM11.157 11.9953C11.2299 11.9857 11.3628 11.9989 11.6548 12.1325C11.9445 12.265 12.3144 12.4782 12.8488 12.7872L13.3494 11.9215C12.8327 11.6228 12.4143 11.3802 12.0708 11.2231C11.7296 11.067 11.3843 10.9567 11.0263 11.0039L11.157 11.9953Z" fill="white"/>
</svg>

<svg xmlns="http://www.w3.org/2000/svg" width="24" height="24" fill="none"><path fill="#fff" d="m16.775 5.116-.5-.001zM15.237 3.4l-.054.498zm-6.468 0 .054.498zM7.231 5.116l.5-.001zm13.179 11.08a.5.5 0 1 0-.99-.14zm-1.72 3.773.32.385zm-13.38 0-.319.385zm-1.224-3.844.495-.07zm-.364-2.582-.495.07zm.24-4.967.367.34zm16.077 0 .367-.34zm-.048 3.363a.5.5 0 1 0 .993.12zm-5.149 1.73.462-.192zm0 .98.462.191zm-1.743 1.314.25.433zm-2.007.855.065-.496zm-.849-.49-.397.303zm0-4.338.397.304zm.849-.49-.066-.496zm6.143-5.903c.023-.21.04-.354.04-.48l-1-.002c0 .059-.008.137-.034.373zm.04-.48a2.22 2.22 0 0 0-1.985-2.214l-.107.995a1.22 1.22 0 0 1 1.092 1.217zM15.29 2.903c-.125-.013-.27-.012-.482-.012v1c.238 0 .317 0 .375.007zm-.482-.012h-5.61v1h5.61zm-5.61 0c-.211 0-.357-.001-.482.012l.107.995a4 4 0 0 1 .374-.007zm-.482.012A2.22 2.22 0 0 0 6.73 5.117l1-.002a1.22 1.22 0 0 1 1.092-1.217zM6.73 5.117c0 .126.017.27.04.48l.994-.109a4 4 0 0 1-.034-.373zm12.272 2.664a2.335 2.335 0 0 0-2.3-2.738v1c.829 0 1.458.748 1.315 1.566zm-2.3-2.738H7.297v1h9.404zm-9.405 0a2.335 2.335 0 0 0-2.3 2.738l.985-.172a1.335 1.335 0 0 1 1.315-1.566zM19.42 16.056c-.153 1.081-.261 1.843-.422 2.417-.156.559-.347.879-.626 1.11l.638.77c.492-.407.763-.94.95-1.61.184-.654.301-1.493.45-2.548zm-1.048 3.527c-.283.235-.653.375-1.271.449-.63.075-1.449.076-2.6.076v1c1.127 0 2.016 0 2.72-.084.714-.085 1.299-.265 1.789-.67zm-3.871.525H9.5v1h5zm-5.001 0c-1.152 0-1.97 0-2.6-.076-.618-.075-.988-.215-1.271-.449l-.638.77c.49.406 1.075.586 1.79.671.702.085 1.592.084 2.719.084zm-3.871-.525c-.28-.231-.47-.551-.626-1.11-.161-.574-.27-1.336-.422-2.417l-.99.14c.148 1.053.266 1.893.449 2.547.187.67.458 1.203.951 1.61zM4.58 16.056l-.364-2.583-.99.14.364 2.582zm-.364-2.583c-.194-1.378-.33-2.355-.325-3.1.005-.728.147-1.144.437-1.457l-.734-.68c-.527.57-.697 1.275-.703 2.129-.007.837.145 1.902.335 3.248zm.112-4.557c.294-.318.725-.512 1.502-.615.788-.105 1.838-.106 3.305-.106v-1c-1.439 0-2.568-.001-3.437.115-.88.117-1.582.363-2.104.927zm4.807-.721h5.729v-1h-5.73zm5.729 0c1.467 0 2.517.001 3.304.106.777.103 1.209.297 1.503.615l.734-.68c-.522-.563-1.225-.81-2.105-.926-.869-.116-1.998-.115-3.436-.115zm4.807.721c.465.502.535 1.254.32 3.023l.992.12c.207-1.691.246-2.932-.578-3.822zm-6.823 3.871c.534.31.903.523 1.163.708.261.187.34.296.368.364l.924-.382c-.138-.334-.406-.578-.711-.796-.308-.22-.727-.46-1.244-.76zm1.53 1.072c.08.192.08.408 0 .6l.925.381c.18-.436.18-.926 0-1.363zm0 .6c-.027.068-.105.177-.367.363-.26.185-.629.4-1.163.708l.5.866c.517-.299.936-.54 1.244-.76.305-.218.573-.462.711-.796zm-1.53 1.071c-.535.31-.904.522-1.194.655-.292.134-.425.147-.498.137l-.13.992c.357.047.703-.064 1.044-.22.343-.157.762-.4 1.278-.698zm-1.692.792a.78.78 0 0 1-.517-.299l-.794.608c.287.375.712.62 1.18.683zm-.517-.299c-.045-.059-.1-.181-.13-.501-.03-.318-.031-.745-.031-1.363h-1c0 .597-.001 1.081.035 1.458.036.374.113.728.332 1.014zm-.161-1.864c0-.618 0-1.046.03-1.363.03-.32.086-.443.131-.502l-.794-.608c-.22.287-.296.64-.332 1.015-.036.376-.035.86-.035 1.458zm.161-1.865a.78.78 0 0 1 .517-.299l-.13-.991a1.78 1.78 0 0 0-1.18.682zm.517-.299c.073-.01.206.004.498.138.29.132.66.345 1.194.654l.5-.866c-.516-.298-.935-.54-1.278-.698-.341-.156-.687-.266-1.045-.22z"/></svg>
